X:1
T:Perfidissimo volto
T:Perfidissimo volto
T:Piero Benedetti
T:Source : Musische di Piero Benedetti---Fiorenza---Heredes di C.Marecotti---1611. Editor André Vierendeels (23/05/15).
T:Notes : Original clefs : C1, F4 Editorial accidentals above the staff Figures in BC are notated in original print
C:Piero Benedetti
%%score 1 2
L:1/8
Q:1/4=120
M:4/4
K:C
V:1 treble nm="Soprano" snm="S"
V:2 bass nm="BC" snm="BC"
V:1
 B6 B2 | B2 A>G G4 | G4 z2 Bc | d2 c>B B4 | B4 z A A>G | A4 A4 | z2 d4 c_B | _B6 A2 | G4 A4 | %9
w: Per- fi-|dis- si- mo vol-|to, ben l'u-|sa- to bel- lez-|za in te si|ve- de|che- mi con-|sum' il|co- re|
 z dcB c3 B | B8 | A8 | z4 e4- | e4 cdec | d4 d4 | d2 B2 e2 dc | d3 e c4- | c4 A/B/c/d/ e/f/g/a/ | %18
w: ma non l'u- sa- ta|fe-|de,|ah'|_ se tu per- di'A-|mo- re,|per- che se- co non|perd' a- mor|_ va- * * * * * * *|
 d4 c4 | z2 e3 B d2 | A4 A4 | z BcB d4- | d2 A2 A4 | G8 | z4 e4- | e4 cdec | d4 d4 | d2 B2 e2 dc | %28
w: ghez- za,|O non hai|pa- ri|al- la bel- ta|_ fer- mez-|za?|Ah'|_ se tu per- di'A-|mo- re|per- che se- co non|
 d3 e c4- | cF G/A/G/F/ G/A/B/c/ d/e/f/g/ | d4 c4 | z2 d3 B d2 | A4 A4 | z BcB d4- | %34
w: perd' an- cor|_ va- * * * * * * * * * * * *|ghez- za,|O non hai|pa- ri|al- la bel- ta|
 d4 D/E/F/G/ A/B/c/d/ |"^#" e2- ef/g/ a3 A | A8 | G8 :| %38
w: _ _ _ _ _ _ _ _ _|* * * * * fer-|mez-|za.|
V:2
 G,4 E,4 | B,,4 C,4 | C,4 G,,4- | G,,4 G,,4 |"^6#" G,,4 E,2 E,2 |"^#" D,8 | _B,4 _E,4- | %7
 E,2 _B,,2 C,2 D,2 |"^6#" _E,2 E,2 D,4 | A,,8 |"^4""^#" E,4 E,4 |"^#" A,,8 | C8 | A,8 | G,8 | %15
 G,4 E,4 | G,4 A,4 | F,6 E,2 |"^4       3" G,2 G,2 C,4 | C,4 G,,2 B,,2 |"^#""^#" D,4 D,4 | %21
"^#" D,2 E,2 ^F,4 |"^6" B,,2 ^C,2 D,2 D,2 |"^#" G,,8 | C8 | A,8 | G,8 | G,4 E,4 | G,4 A,4 | %29
 F,6 E,2 |"^4       3" G,2 G,2 C,4 |"^#" C,4 G,,2 B,,2 |"^#""^#" D,4 D,4 |"^#" D,2 E,2 ^F,4- | %34
 F,8 | ^C,8 |"^4""^#" D,4 D,4 | G,,8 :| %38

